X: 40420
T: Tom McElvogue's
R: reel
M: 4/4
K: Dmajor
K: Dmaj
|:D2 F/E/D Adcd|ABdB AFEF|D2FD ADFD|EA A2 EGFE|
DE F/E/D Adcd|ABdB A2de|faeg fdef|1 dBAG FDEF:|2 dBAG FDD2||
|:dA A2 fA A2|dA A2 fAdA|Bgfg e3|ce e2 Aceg|
fdd2 AFF2|DF F2 ABdA|B2AF GBAF|1 GFEG FDD2:|2 GFEG FDEF||

